static/img/kroki/d8747cd1dd793e299b9a3d5f9dcb58c0.svg

<?xml version="1.0" encoding="us-ascii" standalone="no"?><svg xmlns="http://www.w3.org/2000/svg" xmlns:xlink="http://www.w3.org/1999/xlink" contentStyleType="text/css" height="846px" preserveAspectRatio="none" style="width:401px;height:846px;" version="1.1" viewBox="0 0 401 846" width="401px" zoomAndPan="magnify"><defs/><g><!--class aws_cloudfront_streaming_distribution--><g id="elem_aws_cloudfront_streaming_distribution"><rect codeLine="22" fill="#3D176E" height="205.5703" id="aws_cloudfront_streaming_distribution" rx="2.5" ry="2.5" style="stroke:#000D19;stroke-width:0.5;" width="387" x="7" y="633.84"/><ellipse cx="30.55" cy="653.7345" fill="#ADD1B2" rx="11" ry="11" style="stroke:#181818;stroke-width:1.0;"/><path d="M33.5188,659.3752 Q32.9406,659.672 32.3,659.8127 Q31.6594,659.9689 30.9563,659.9689 Q28.4563,659.9689 27.1281,658.3283 Q25.8156,656.672 25.8156,653.547 Q25.8156,650.422 27.1281,648.7658 Q28.4563,647.1095 30.9563,647.1095 Q31.6594,647.1095 32.3,647.2658 Q32.9563,647.422 33.5188,647.7189 L33.5188,650.4377 Q32.8938,649.8595 32.3,649.5939 Q31.7063,649.3127 31.0813,649.3127 Q29.7375,649.3127 29.05,650.3908 Q28.3625,651.4533 28.3625,653.547 Q28.3625,655.6408 29.05,656.7189 Q29.7375,657.7814 31.0813,657.7814 Q31.7063,657.7814 32.3,657.5158 Q32.8938,657.2345 33.5188,656.6564 L33.5188,659.3752 Z " fill="#000000"/><text fill="#D9B8FF" font-family="Helvetica" font-size="17" lengthAdjust="spacing" textLength="326" x="51.45" y="659.6198">aws_cloudfront_streaming_distribution</text><line style="stroke:#000D19;stroke-width:0.5;" x1="8" x2="393" y1="673.6291" y2="673.6291"/><text fill="#D9B8FF" font-family="sans-serif" font-size="14" font-weight="bold" lengthAdjust="spacing" textLength="256" x="18" y="695.6242">streaming_distribution_comment</text><text fill="#D9B8FF" font-family="sans-serif" font-size="14" lengthAdjust="spacing" textLength="48" x="274" y="695.6242">: string</text><text fill="#D9B8FF" font-family="sans-serif" font-size="14" font-weight="bold" lengthAdjust="spacing" textLength="290" x="18" y="721.9211">streaming_distribution_domain_name</text><text fill="#D9B8FF" font-family="sans-serif" font-size="14" lengthAdjust="spacing" textLength="48" x="308" y="721.9211">: string</text><text fill="#D9B8FF" font-family="sans-serif" font-size="14" font-weight="bold" lengthAdjust="spacing" textLength="246" x="18" y="748.2179">streaming_distribution_enabled</text><text fill="#D9B8FF" font-family="sans-serif" font-size="14" lengthAdjust="spacing" textLength="65" x="264" y="748.2179">: boolean</text><text fill="#D9B8FF" font-family="sans-serif" font-size="14" font-weight="bold" lengthAdjust="spacing" textLength="270" x="18" y="774.5148">streaming_distribution_price_class</text><text fill="#D9B8FF" font-family="sans-serif" font-size="14" lengthAdjust="spacing" textLength="48" x="288" y="774.5148">: string</text><text fill="#D9B8FF" font-family="sans-serif" font-size="14" font-weight="bold" lengthAdjust="spacing" textLength="232" x="18" y="800.8117">streaming_distribution_status</text><text fill="#D9B8FF" font-family="sans-serif" font-size="14" lengthAdjust="spacing" textLength="48" x="250" y="800.8117">: string</text><text fill="#D9B8FF" font-family="sans-serif" font-size="14" font-weight="bold" lengthAdjust="spacing" textLength="307" x="18" y="827.1086">streaming_distribution_trusted_signers</text><text fill="#D9B8FF" font-family="sans-serif" font-size="14" lengthAdjust="spacing" textLength="58" x="325" y="827.1086">: string[]</text></g><!--class aws_resource--><g id="elem_aws_resource"><rect codeLine="30" fill="#3D176E" height="74.0859" id="aws_resource" rx="2.5" ry="2.5" style="stroke:#000D19;stroke-width:0.5;" width="155" x="123" y="438.75"/><ellipse cx="138" cy="458.6445" fill="#ADD1B2" rx="11" ry="11" style="stroke:#181818;stroke-width:1.0;"/><path d="M140.9688,464.2852 Q140.3906,464.582 139.75,464.7227 Q139.1094,464.8789 138.4063,464.8789 Q135.9063,464.8789 134.5781,463.2383 Q133.2656,461.582 133.2656,458.457 Q133.2656,455.332 134.5781,453.6758 Q135.9063,452.0195 138.4063,452.0195 Q139.1094,452.0195 139.75,452.1758 Q140.4063,452.332 140.9688,452.6289 L140.9688,455.3477 Q140.3438,454.7695 139.75,454.5039 Q139.1563,454.2227 138.5313,454.2227 Q137.1875,454.2227 136.5,455.3008 Q135.8125,456.3633 135.8125,458.457 Q135.8125,460.5508 136.5,461.6289 Q137.1875,462.6914 138.5313,462.6914 Q139.1563,462.6914 139.75,462.4258 Q140.3438,462.1445 140.9688,461.5664 L140.9688,464.2852 Z " fill="#000000"/><text fill="#D9B8FF" font-family="Helvetica" font-size="17" lengthAdjust="spacing" textLength="113" x="157" y="464.5298">aws_resource</text><line style="stroke:#000D19;stroke-width:0.5;" x1="124" x2="277" y1="478.5391" y2="478.5391"/><text fill="#D9B8FF" font-family="sans-serif" font-size="14" font-weight="bold" lengthAdjust="spacing" textLength="26" x="134" y="500.5342">arn</text><text fill="#D9B8FF" font-family="sans-serif" font-size="14" lengthAdjust="spacing" textLength="48" x="160" y="500.5342">: string</text></g><!--class resource--><g id="elem_resource"><rect codeLine="33" fill="#3D176E" height="310.7578" id="resource" rx="2.5" ry="2.5" style="stroke:#000D19;stroke-width:0.5;" width="227" x="87" y="7"/><ellipse cx="155.75" cy="26.8945" fill="#ADD1B2" rx="11" ry="11" style="stroke:#181818;stroke-width:1.0;"/><path d="M158.7188,32.5352 Q158.1406,32.832 157.5,32.9727 Q156.8594,33.1289 156.1563,33.1289 Q153.6563,33.1289 152.3281,31.4883 Q151.0156,29.832 151.0156,26.707 Q151.0156,23.582 152.3281,21.9258 Q153.6563,20.2695 156.1563,20.2695 Q156.8594,20.2695 157.5,20.4258 Q158.1563,20.582 158.7188,20.8789 L158.7188,23.5977 Q158.0938,23.0195 157.5,22.7539 Q156.9063,22.4727 156.2813,22.4727 Q154.9375,22.4727 154.25,23.5508 Q153.5625,24.6133 153.5625,26.707 Q153.5625,28.8008 154.25,29.8789 Q154.9375,30.9414 156.2813,30.9414 Q156.9063,30.9414 157.5,30.6758 Q158.0938,30.3945 158.7188,29.8164 L158.7188,32.5352 Z " fill="#000000"/><text fill="#D9B8FF" font-family="Helvetica" font-size="17" lengthAdjust="spacing" textLength="71" x="181.25" y="32.7798">resource</text><line style="stroke:#000D19;stroke-width:0.5;" x1="88" x2="313" y1="46.7891" y2="46.7891"/><text fill="#D9B8FF" font-family="sans-serif" font-size="14" font-weight="bold" lengthAdjust="spacing" textLength="29" x="98" y="68.7842">age</text><text fill="#D9B8FF" font-family="sans-serif" font-size="14" lengthAdjust="spacing" textLength="66" x="127" y="68.7842">: duration</text><text fill="#D9B8FF" font-family="sans-serif" font-size="14" font-weight="bold" lengthAdjust="spacing" textLength="43" x="98" y="95.0811">atime</text><text fill="#D9B8FF" font-family="sans-serif" font-size="14" lengthAdjust="spacing" textLength="70" x="141" y="95.0811">: datetime</text><text fill="#D9B8FF" font-family="sans-serif" font-size="14" font-weight="bold" lengthAdjust="spacing" textLength="43" x="98" y="121.3779">ctime</text><text fill="#D9B8FF" font-family="sans-serif" font-size="14" lengthAdjust="spacing" textLength="70" x="141" y="121.3779">: datetime</text><text fill="#D9B8FF" font-family="sans-serif" font-size="14" font-weight="bold" lengthAdjust="spacing" textLength="14" x="98" y="147.6748">id</text><text fill="#D9B8FF" font-family="sans-serif" font-size="14" lengthAdjust="spacing" textLength="48" x="112" y="147.6748">: string</text><text fill="#D9B8FF" font-family="sans-serif" font-size="14" font-weight="bold" lengthAdjust="spacing" textLength="33" x="98" y="173.9717">kind</text><text fill="#D9B8FF" font-family="sans-serif" font-size="14" lengthAdjust="spacing" textLength="48" x="131" y="173.9717">: string</text><text fill="#D9B8FF" font-family="sans-serif" font-size="14" font-weight="bold" lengthAdjust="spacing" textLength="90" x="98" y="200.2686">last_access</text><text fill="#D9B8FF" font-family="sans-serif" font-size="14" lengthAdjust="spacing" textLength="66" x="188" y="200.2686">: duration</text><text fill="#D9B8FF" font-family="sans-serif" font-size="14" font-weight="bold" lengthAdjust="spacing" textLength="90" x="98" y="226.5654">last_update</text><text fill="#D9B8FF" font-family="sans-serif" font-size="14" lengthAdjust="spacing" textLength="66" x="188" y="226.5654">: duration</text><text fill="#D9B8FF" font-family="sans-serif" font-size="14" font-weight="bold" lengthAdjust="spacing" textLength="48" x="98" y="252.8623">mtime</text><text fill="#D9B8FF" font-family="sans-serif" font-size="14" lengthAdjust="spacing" textLength="70" x="146" y="252.8623">: datetime</text><text fill="#D9B8FF" font-family="sans-serif" font-size="14" font-weight="bold" lengthAdjust="spacing" textLength="43" x="98" y="279.1592">name</text><text fill="#D9B8FF" font-family="sans-serif" font-size="14" lengthAdjust="spacing" textLength="48" x="141" y="279.1592">: string</text><text fill="#D9B8FF" font-family="sans-serif" font-size="14" font-weight="bold" lengthAdjust="spacing" textLength="34" x="98" y="305.4561">tags</text><text fill="#D9B8FF" font-family="sans-serif" font-size="14" lengthAdjust="spacing" textLength="171" x="132" y="305.4561">: dictionary[string, string]</text></g><!--reverse link aws_resource to aws_cloudfront_streaming_distribution--><g id="link_aws_resource_aws_cloudfront_streaming_distribution"><path codeLine="45" d="M200.5,534.08 C200.5,563.25 200.5,599.6 200.5,633.38 " fill="none" id="aws_resource-backto-aws_cloudfront_streaming_distribution" style="stroke:#FFAF37;stroke-width:2.0;"/><polygon fill="none" points="193.5,534.33,200.5,514.33,207.5,534.33,193.5,534.33" style="stroke:#FFAF37;stroke-width:2.0;"/></g><!--reverse link resource to aws_resource--><g id="link_resource_aws_resource"><path codeLine="46" d="M200.5,338.97 C200.5,376.78 200.5,413 200.5,438.51 " fill="none" id="resource-backto-aws_resource" style="stroke:#FFAF37;stroke-width:2.0;"/><polygon fill="none" points="193.5,339.17,200.5,319.17,207.5,339.17,193.5,339.17" style="stroke:#FFAF37;stroke-width:2.0;"/></g><!--SRC=[ZP9BQnin58Nt_XM2x4mDTaFhk7IJ6aAw2QNfBfJXZdHdB3oIXgixDUxZlrUQYOFcuSGxSSwd-pZIJYiKQ6e-2eCcH_8plzUs1W8ZRedSOUigH-AgAA2uNW_DEsVvJU0138fxh7uXQmb3uiTEoxr5xyNxnFe2Sb-IQwpgoZE1zS52omcrhS3xMsRIUSEO3ACs-KrH3CbXqQjhjLf_n17cI24z8ylbKgqsG-JDLg_k_K8ywjyeLcbe3uvnDEQeHKkzEcKaaY57YvxyipD-0wMqBSM7HFlUpKGMgQS_xa2vGwGBg7pQnZCIEZxMk1rjXPiRLQmduQ_dO1cJ4t3mcQnSemeAAsIU2S64zfdIlliBsbdnPpQVJrkPTCQ4dpIVVn9HjULvL3a3scOsv7G9ZXRo2bL4S-Sg17kUhKbBpDgLBYdj6RYvY6HgGfOgyxeCJvLSUVev-vTaIEXTGnBRg81iKlk4zP6opK0r1B5FL5XtkIXWZEUWoGbDgzxSuSdxGkZ56KY9NHH9XzPfwbXhu9Y9FgDdOYYxYbh6Qq37fyvxzyp4H7fPVFwxM2mk-sApYKidwJy0]--></g></svg>

<svg xmlns="http://www.w3.org/2000/svg" width="401" height="846" preserveAspectRatio="none" style="width:401px;height:846px"><rect width="387" height="205.57" x="7" y="633.84" fill="#3D176E" rx="2.5" ry="2.5" style="stroke:#000d19;stroke-width:.5"/><circle cx="30.55" cy="653.735" r="11" fill="#ADD1B2" style="stroke:#181818;stroke-width:1"/><path d="M33.519 659.375q-.578.297-1.219.438-.64.156-1.344.156-2.5 0-3.828-1.64-1.312-1.657-1.312-4.782t1.312-4.781q1.328-1.656 3.828-1.656.703 0 1.344.156.656.156 1.219.453v2.719q-.625-.578-1.219-.844-.594-.281-1.219-.281-1.343 0-2.031 1.078-.688 1.062-.688 3.156 0 2.094.688 3.172.688 1.062 2.031 1.062.625 0 1.219-.265.594-.281 1.219-.86v2.72Z"/><text x="51.45" y="659.62" fill="#D9B8FF" font-family="Helvetica" font-size="17" textLength="326">aws_cloudfront_streaming_distribution</text><path d="M8 673.629h385" style="stroke:#000d19;stroke-width:.5"/><text x="18" y="695.624" fill="#D9B8FF" font-family="sans-serif" font-size="14" font-weight="bold" textLength="256">streaming_distribution_comment</text><text x="274" y="695.624" fill="#D9B8FF" font-family="sans-serif" font-size="14" textLength="48">: string</text><text x="18" y="721.921" fill="#D9B8FF" font-family="sans-serif" font-size="14" font-weight="bold" textLength="290">streaming_distribution_domain_name</text><text x="308" y="721.921" fill="#D9B8FF" font-family="sans-serif" font-size="14" textLength="48">: string</text><text x="18" y="748.218" fill="#D9B8FF" font-family="sans-serif" font-size="14" font-weight="bold" textLength="246">streaming_distribution_enabled</text><text x="264" y="748.218" fill="#D9B8FF" font-family="sans-serif" font-size="14" textLength="65">: boolean</text><text x="18" y="774.515" fill="#D9B8FF" font-family="sans-serif" font-size="14" font-weight="bold" textLength="270">streaming_distribution_price_class</text><text x="288" y="774.515" fill="#D9B8FF" font-family="sans-serif" font-size="14" textLength="48">: string</text><text x="18" y="800.812" fill="#D9B8FF" font-family="sans-serif" font-size="14" font-weight="bold" textLength="232">streaming_distribution_status</text><text x="250" y="800.812" fill="#D9B8FF" font-family="sans-serif" font-size="14" textLength="48">: string</text><text x="18" y="827.109" fill="#D9B8FF" font-family="sans-serif" font-size="14" font-weight="bold" textLength="307">streaming_distribution_trusted_signers</text><text x="325" y="827.109" fill="#D9B8FF" font-family="sans-serif" font-size="14" textLength="58">: string[]</text><rect width="155" height="74.086" x="123" y="438.75" fill="#3D176E" rx="2.5" ry="2.5" style="stroke:#000d19;stroke-width:.5"/><circle cx="138" cy="458.644" r="11" fill="#ADD1B2" style="stroke:#181818;stroke-width:1"/><path d="M140.969 464.285q-.578.297-1.219.438-.64.156-1.344.156-2.5 0-3.828-1.64-1.312-1.657-1.312-4.782t1.312-4.781q1.328-1.656 3.828-1.656.703 0 1.344.156.656.156 1.219.453v2.719q-.625-.579-1.219-.844-.594-.281-1.219-.281-1.344 0-2.031 1.078-.688 1.062-.688 3.156 0 2.094.688 3.172.688 1.062 2.031 1.062.625 0 1.219-.265.594-.281 1.219-.86v2.72Z"/><text x="157" y="464.53" fill="#D9B8FF" font-family="Helvetica" font-size="17" textLength="113">aws_resource</text><path d="M124 478.539h153" style="stroke:#000d19;stroke-width:.5"/><text x="134" y="500.534" fill="#D9B8FF" font-family="sans-serif" font-size="14" font-weight="bold" textLength="26">arn</text><text x="160" y="500.534" fill="#D9B8FF" font-family="sans-serif" font-size="14" textLength="48">: string</text><rect width="227" height="310.758" x="87" y="7" fill="#3D176E" rx="2.5" ry="2.5" style="stroke:#000d19;stroke-width:.5"/><circle cx="155.75" cy="26.895" r="11" fill="#ADD1B2" style="stroke:#181818;stroke-width:1"/><path d="M158.719 32.535q-.578.297-1.219.438-.64.156-1.344.156-2.5 0-3.828-1.64-1.312-1.657-1.312-4.782t1.312-4.781q1.328-1.656 3.828-1.656.703 0 1.344.156.656.156 1.219.453v2.719q-.625-.578-1.219-.844-.594-.281-1.219-.281-1.344 0-2.031 1.078-.688 1.062-.688 3.156 0 2.094.688 3.172.688 1.062 2.031 1.062.625 0 1.219-.265.594-.281 1.219-.86v2.72Z"/><text x="181.25" y="32.78" fill="#D9B8FF" font-family="Helvetica" font-size="17" textLength="71">resource</text><path d="M88 46.789h225" style="stroke:#000d19;stroke-width:.5"/><text x="98" y="68.784" fill="#D9B8FF" font-family="sans-serif" font-size="14" font-weight="bold" textLength="29">age</text><text x="127" y="68.784" fill="#D9B8FF" font-family="sans-serif" font-size="14" textLength="66">: duration</text><text x="98" y="95.081" fill="#D9B8FF" font-family="sans-serif" font-size="14" font-weight="bold" textLength="43">atime</text><text x="141" y="95.081" fill="#D9B8FF" font-family="sans-serif" font-size="14" textLength="70">: datetime</text><text x="98" y="121.378" fill="#D9B8FF" font-family="sans-serif" font-size="14" font-weight="bold" textLength="43">ctime</text><text x="141" y="121.378" fill="#D9B8FF" font-family="sans-serif" font-size="14" textLength="70">: datetime</text><text x="98" y="147.675" fill="#D9B8FF" font-family="sans-serif" font-size="14" font-weight="bold" textLength="14">id</text><text x="112" y="147.675" fill="#D9B8FF" font-family="sans-serif" font-size="14" textLength="48">: string</text><text x="98" y="173.972" fill="#D9B8FF" font-family="sans-serif" font-size="14" font-weight="bold" textLength="33">kind</text><text x="131" y="173.972" fill="#D9B8FF" font-family="sans-serif" font-size="14" textLength="48">: string</text><text x="98" y="200.269" fill="#D9B8FF" font-family="sans-serif" font-size="14" font-weight="bold" textLength="90">last_access</text><text x="188" y="200.269" fill="#D9B8FF" font-family="sans-serif" font-size="14" textLength="66">: duration</text><text x="98" y="226.565" fill="#D9B8FF" font-family="sans-serif" font-size="14" font-weight="bold" textLength="90">last_update</text><text x="188" y="226.565" fill="#D9B8FF" font-family="sans-serif" font-size="14" textLength="66">: duration</text><text x="98" y="252.862" fill="#D9B8FF" font-family="sans-serif" font-size="14" font-weight="bold" textLength="48">mtime</text><text x="146" y="252.862" fill="#D9B8FF" font-family="sans-serif" font-size="14" textLength="70">: datetime</text><text x="98" y="279.159" fill="#D9B8FF" font-family="sans-serif" font-size="14" font-weight="bold" textLength="43">name</text><text x="141" y="279.159" fill="#D9B8FF" font-family="sans-serif" font-size="14" textLength="48">: string</text><text x="98" y="305.456" fill="#D9B8FF" font-family="sans-serif" font-size="14" font-weight="bold" textLength="34">tags</text><text x="132" y="305.456" fill="#D9B8FF" font-family="sans-serif" font-size="14" textLength="171">: dictionary[string, string]</text><path fill="none" d="M200.5 534.08v99.3m-7-99.05 7-20 7 20h-14zm7-195.36v99.54m-7-99.34 7-20 7 20h-14z" style="stroke:#ffaf37;stroke-width:2"/></svg>
